sabine/images/weather.svg

<?xml version="1.0" encoding="UTF-8" standalone="no"?>
<svg
   xmlns:dc="http://purl.org/dc/elements/1.1/"
   xmlns:cc="http://creativecommons.org/ns#"
   xmlns:rdf="http://www.w3.org/1999/02/22-rdf-syntax-ns#"
   xmlns:svg="http://www.w3.org/2000/svg"
   xmlns="http://www.w3.org/2000/svg"
   id="svg3549"
   version="1.1"
   viewBox="0 0 100 100"
   height="100pt"
   width="100pt">
  <defs
     id="defs3568" />
  <g
     id="colors">
    <path
       id="path3577"
       d="m 75.741526,48.728814 -4.131356,-9.427967 -10.911017,-5.084745 -13.347458,2.966101 -6.038136,9.004238 -0.953389,9.004237 -7.415255,3.707627 -4.872881,9.216101 c 0,0 2.860169,8.368645 3.283898,8.580509 0.423729,0.211865 11.758475,4.025421 11.758475,4.025421 l 41.525425,-0.741522 9.216104,-4.343221 4.449152,-11.016949 -2.648312,-10.063559 -8.05084,-6.355932 z"
       style="fill:#80a1ce" />
    <path
       id="path3574"
       d="m 47.987288,37.182203 -5.508474,-6.355932 -11.122882,-2.118644 -7.944915,3.495763 -3.495763,11.228813 5.190678,9.851695 8.262712,4.978814 L 40.042373,56.25 41.419491,45.868644 Z"
       style="fill:#ffff00" />
  </g>
  <g
     id="lines">
    <path
       style="opacity:1;fill:#000000"
       id="path3552"
       d="m 32.14,10.08 c -0.04,-1.83 1.76,-2.1 3.17,-2.23 0.98,4.22 0.95,8.63 0.44,12.91 -0.34,1.6 -2.08,1.24 -3.19,0.79 -1.03,-3.71 -0.61,-7.67 -0.42,-11.47 z" />
    <path
       style="opacity:1;fill:#000000"
       id="path3554"
       d="m 10.47,17.59 c 0.3,-0.05 0.9,-0.15 1.19,-0.2 3.11,2.14 5.69,4.99 8.25,7.75 1.52,1.02 -0.38,4.41 -2.06,3.08 C 15,26.5 12.89,23.78 10.57,21.44 9.3,20.43 8.83,18.5 10.47,17.59 Z" />
    <path
       style="opacity:1;fill:#000000"
       id="path3556"
       d="m 55.7,17.67 c 1.62,-1.26 2.71,0.75 3.37,1.96 -2.94,3.25 -6.03,6.37 -9.36,9.22 -1.14,-0.66 -1.88,-1.62 -2.22,-2.86 2.4,-3.07 5.18,-5.88 8.21,-8.32 z" />
    <path
       style="opacity:1;fill:#000000"
       id="path3558"
       d="m 30.35,26.66 c 4.77,-1.25 10.09,0.2 13.9,3.24 1.6,0.95 0.62,3.46 -1.14,3.41 -3.28,-1.37 -6.42,-3.72 -10.19,-3.2 -7.04,0.43 -12.47,7.93 -10.52,14.76 0.68,3.73 3.87,5.98 6.37,8.48 1.3,0.81 -0.33,3.47 -1.72,2.77 -6.88,-2.81 -10.51,-11.37 -8.41,-18.4 1.53,-5.46 6.22,-9.77 11.71,-11.06 z" />
    <path
       style="opacity:1;fill:#000000"
       id="path3560"
       d="m 42.06,40.04 c 5.43,-7.52 16.47,-10.24 24.71,-5.91 5.14,2.48 8.47,7.42 10.4,12.63 3.81,-0.78 7.89,-1.04 11.53,0.59 6.4,2.45 10.73,8.81 11.3,15.57 l 0,1.92 c -0.42,9.29 -8.61,17.3 -17.97,17.11 -14.04,0.09 -28.1,0.1 -42.14,-0.01 -8.16,0.17 -15.14,-7.82 -13.69,-15.9 0.62,-6.18 6.2,-10.22 11.76,-11.85 0.06,-4.97 0.88,-10.17 4.1,-14.15 m 2.87,2.83 c -3.28,4.34 -3.29,10.06 -2.04,15.14 -2.5,0.08 -5.22,-0.2 -7.43,1.22 -4.24,2.1 -6.63,7.5 -4.87,11.99 1.46,3.78 5.16,6.82 9.33,6.74 13.37,0.12 26.75,-0.02 40.12,0.06 3.83,0.14 7.86,-0.6 10.84,-3.18 6.59,-5 6.77,-15.92 0.47,-21.23 C 86.76,49.24 79.69,49.3 74.26,52.01 73.58,47.19 71.8,42.21 67.68,39.28 60.83,33.8 49.76,35.55 44.93,42.87 Z" />
    <path
       style="opacity:1;fill:#000000"
       id="path3562"
       d="m 0,40.54 c 4.4,-0.79 9.01,-0.99 13.4,-0.04 0.27,1.03 0.49,2.07 0.68,3.11 -4.67,0.59 -9.41,0.56 -14.08,0 l 0,-3.07 z" />
    <path
       style="opacity:1;fill:#000000"
       id="path3564"
       d="m 16.56,56.59 c 1.36,-1.5 3.25,-1.49 4.06,0.57 -1.46,3.41 -4.68,5.58 -7.19,8.18 -1.22,1.57 -3.18,1.75 -4.09,-0.25 1.13,-3.61 4.69,-5.83 7.22,-8.5 z" />
  </g>
</svg>

<?xml version="1.0" encoding="UTF-8" ?>
<!DOCTYPE svg PUBLIC "-//W3C//DTD SVG 1.1//EN" "http://www.w3.org/Graphics/SVG/1.1/DTD/svg11.dtd">
<svg width="100pt" height="100pt" viewBox="0 0 100 100" version="1.1" xmlns="http://www.w3.org/2000/svg">
<g id="#000000ff">
<path fill="#000000" opacity="1.00" d=" M 32.14 10.08 C 32.10 8.25 33.90 7.98 35.31 7.85 C 36.29 12.07 36.26 16.48 35.75 20.76 C 35.41 22.36 33.67 22.00 32.56 21.55 C 31.53 17.84 31.95 13.88 32.14 10.08 Z" />
<path fill="#000000" opacity="1.00" d=" M 10.47 17.59 C 10.77 17.54 11.37 17.44 11.66 17.39 C 14.77 19.53 17.35 22.38 19.91 25.14 C 21.43 26.16 19.53 29.55 17.85 28.22 C 15.00 26.50 12.89 23.78 10.57 21.44 C 9.30 20.43 8.83 18.50 10.47 17.59 Z" />
<path fill="#000000" opacity="1.00" d=" M 55.70 17.67 C 57.32 16.41 58.41 18.42 59.07 19.63 C 56.13 22.88 53.04 26.00 49.71 28.85 C 48.57 28.19 47.83 27.23 47.49 25.99 C 49.89 22.92 52.67 20.11 55.70 17.67 Z" />
<path fill="#000000" opacity="1.00" d=" M 30.35 26.66 C 35.12 25.41 40.44 26.86 44.25 29.90 C 45.85 30.85 44.87 33.36 43.11 33.31 C 39.83 31.94 36.69 29.59 32.92 30.11 C 25.88 30.54 20.45 38.04 22.40 44.87 C 23.08 48.60 26.27 50.85 28.77 53.35 C 30.07 54.16 28.44 56.82 27.05 56.12 C 20.17 53.31 16.54 44.75 18.64 37.72 C 20.17 32.26 24.86 27.95 30.35 26.66 Z" />
<path fill="#000000" opacity="1.00" d=" M 42.06 40.04 C 47.49 32.52 58.53 29.80 66.77 34.13 C 71.91 36.61 75.24 41.55 77.17 46.76 C 80.98 45.98 85.06 45.72 88.70 47.35 C 95.10 49.80 99.43 56.16 100.00 62.92 L 100.00 64.84 C 99.58 74.13 91.39 82.14 82.03 81.95 C 67.99 82.04 53.93 82.05 39.89 81.94 C 31.73 82.11 24.75 74.12 26.20 66.04 C 26.82 59.86 32.40 55.82 37.96 54.19 C 38.02 49.22 38.84 44.02 42.06 40.04 M 44.93 42.87 C 41.65 47.21 41.64 52.93 42.89 58.01 C 40.39 58.09 37.67 57.81 35.46 59.23 C 31.22 61.33 28.83 66.73 30.59 71.22 C 32.05 75.00 35.75 78.04 39.92 77.96 C 53.29 78.08 66.67 77.94 80.04 78.02 C 83.87 78.16 87.90 77.42 90.88 74.84 C 97.47 69.84 97.65 58.92 91.35 53.61 C 86.76 49.24 79.69 49.30 74.26 52.01 C 73.58 47.19 71.80 42.21 67.68 39.28 C 60.83 33.80 49.76 35.55 44.93 42.87 Z" />
<path fill="#000000" opacity="1.00" d=" M 0.00 40.54 C 4.40 39.75 9.01 39.55 13.40 40.50 C 13.67 41.53 13.89 42.57 14.08 43.61 C 9.41 44.20 4.67 44.17 0.00 43.61 L 0.00 40.54 Z" />
<path fill="#000000" opacity="1.00" d=" M 16.56 56.59 C 17.92 55.09 19.81 55.10 20.62 57.16 C 19.16 60.57 15.94 62.74 13.43 65.34 C 12.21 66.91 10.25 67.09 9.34 65.09 C 10.47 61.48 14.03 59.26 16.56 56.59 Z" />
</g>
</svg>
